!!!!SEGMENT: pl-wnifc--3105-n_dobrzynski-ignacy-feliks--souvenir-d-oukraine.krn
!!!cenid: 18xx:3857
!!!COM: Dobrzyński, Ignacy Feliks
!!!COM-rismID: pe30020642
!!!CDT: 1807/02/15-1867/10/09
!!!CNT: Polish
!!!OTL: Souvenir d’Oukraine
!!!PDT:
!!!AGN:
!!!SMS-siglum: PL-Wnifc
!!!SMS-shelfmark: 3105/n
!!!SMS-shelfwork: W
!!!SMS-variant:
!!!SMS-altvar:
!!!NIFC-rismSourceID: 1001141807
!!!NIFC-rismChildID: 1001141807
!!!NIFC-islandoraID: nifc:212142
!!!URL-pdf-islandora: https://repozytorium.nifc.pl/islandora/object/nifc%3A212142/datastream/PDF/view
!!!URL-scan: https://polish.musicsources.pl/pl/lokalizacje/galeria/druki-muzyczne/16828 @EN{Scan on Polish Music Sources Website} @PL{Skany w portalu Dziedzictwo Muzyki Polskiej w otwartym dostępie}
!!!ONB-nifc:
!!!AIN: 1 piano
!!!key: a
**kern	**dynam	**kern	**dynam
*part1	*part1	*part1	*part1
*staff2	*staff2	*staff1	*staff1
*I"PIANO.	*	*	*
*Ipiano	*	*	*
*ICklav	*	*	*
*clefF4	*	*clefG2	*
*k[]	*	*k[]	*
*a:	*	*a:	*
*M4/4	*	*M4/4	*
*met(c)	*	*met(c)	*
=1	=1	=1	=1
!	!	!LO:TX:a:B:t=Moderato.	!
(8AA/L	p	1r	.
8BB/	.	.	.
8C/	.	.	.
8BB/J	.	.	.
8D/L	.	.	.
8C/	.	.	.
8BB/	.	.	.
8AA/J)	.	.	.
=2	=2	=2	=2
4F'\	.	2r	.
(4F\	.	.	.
4.E\	.	4r	.
.	.	4B/ 4e 4g#X	.
8D\)	.	.	.
=3	=3	=3	=3
4C/	.	4A/ 4e 4a	<
4GG#X/ 4G#X	.	4d/ 4e 4b	.
4AA/ 4A	.	4c/ 4e 4cc	.
4FF/ 4F	.	4B/ 4d#X 4a	[[
=4	=4	=4	=4
4EE/ 4E	.	4B/ 4e 4g#X	.
4EEE/ 4EE	.	4e/ 4g# 4b 4ee	sf
2r	.	2r	.
!!LO:LB:g=original
=5	=5	=5	=5
(8D\L	p	1r	.
8E\	.	.	.
8F\	.	.	.
8E\J	.	.	.
8G\L	.	.	.
8F\	.	.	.
8E\	.	.	.
8D\J)	.	.	.
=6	=6	=6	=6
4B-X'\	.	2r	.
(4B-\	.	.	.
4.A\	.	4r	.
.	.	4e/ 4a 4cc#X	.
8G\)	.	.	.
=7	=7	=7	=7
4F\	.	4d/ 4a 4dd	<
4C#X\ 4c#X	.	4g/ 4a 4ee	.
4D\ 4d	.	4f/ 4a 4ff	.
4BB-X\ 4B-X	.	4e/ 4g#X 4dd	[[
=8	=8	=8	=8
4AA\ 4A	.	4e/ 4a 4cc#X	.
4AAA/ 4AA	.	4a\ 4cc# 4ee 4aa	sf
2r	.	2r	.
=9	=9	=9	=9
2r	.	(2b-X^\	.
(4G\ 4B-X	.	4c#X/	.
4F\ 4A	.	4d/	.
!!LO:LB:g=original
=10	=10	=10	=10
2.E\) 2.G	.	8e/L	.
.	.	8f/	.
.	.	8g/	.
.	.	8f/J	.
.	.	4e/)	.
4r	.	4r	.
=11	=11	=11	=11
4r	.	(2b-X^\	.
(2G\ 2B-X	.	.	.
.	.	4c#X/	.
4F\) 4A	.	4d/)	.
=12	=12	=12	=12
2.E\ 2.G	.	(8e/L	.
.	.	8f/	.
.	.	8qa/	.
.	.	8g/	.
.	.	8f/J	.
.	.	4e/)	.
4r	.	8.r	.
.	.	16a/	.
=13	=13	=13	=13
!	!	!LO:TX:b:t=agitato e cresc._:problem:dynamics with extension lines	!LO:HP:b:t=agitato e cresc.-:ext=cd
4r	.	(4..b-X^>/	<
4C#X\ 4E 4G	.	.	.
.	.	16a/)	.
4r	.	(4..b-^>/	.
4D\ 4F	.	.	.
.	.	16a/)	.
=14	=14	=14	=14
4r	.	(4..dd^>\	.
4E\ 4G 4B-X	.	.	.
.	.	16cc#X\)	.
4r	.	(4..ee^>\	.
4F\ 4A 4d	.	.	.
.	.	16dd\)	[[
!!LO:LB:g=original
=15	=15	=15	=15
4r	.	([2ff\	f
2D\ 2F 2B-X 2d	sf	.	.
.	.	8ff\L]	.
.	.	8cc#X\	.
4r	.	8dd\	.
!	!	!LO:TX:b:i:t=poco rallent._:dur=1w1e:ext=cd	!
.	.	8a\J	.
=16	=16	=16	=16
1r	.	8b-X/L	>
.	.	8e/	.
.	.	8f/	.
.	.	8c#X/J	.
.	.	8d/L	.
.	.	8A/	.
.	.	8B-X/	.
.	.	8d/J)	]
=17	=17	=17	=17
4r	.	(8f^>/L	p
.	.	8e/J)	.
4E\ 4A 4c	.	4r	.
2r	.	2r	.
=18	=18	=18	=18
*^	*	*	*
!	!	!LO:DY:a	!	!
(>8F^/L	4r	pp	1ryy	.
8D/J)	.	.	.	.
4r	2EE\ 2GG#X 2D	.	.	.
2r;	.	.	.	.
.	4r;>	.	.	.
*v	*v	*	*	*
==	==	==	==
*-	*-	*-	*-
!!!RDF**kern: > = above
!!!RDF**kern: < = below
!!!system-decoration: {(s1,s2)}
!!!ENC: Marta Opryszak
!!!END: 2022-07-18
!!!ENC: Urszula Świątek
!!!END: 2022-08-18
!!!YEC: Copyright 2022 Narodowy Instytut Fryderyka Chopina (https://polishscores.org)
!!!YEM: License CC-BY-4.0 (https://creativecommons.org/licenses/by/4.0)
